ios/Runner/Resources/daily1.cube
#Created by: Adobe Photoshop Export Color Lookup Plugin
TITLE "daily1.png"

#LUT size
LUT_3D_SIZE 8

#data domain
DOMAIN_MIN 0.0 0.0 0.0
DOMAIN_MAX 1.0 1.0 1.0

#LUT data points
0.000000 0.000000 0.000000
0.215668 0.000000 0.003937
0.439209 0.000000 0.000000
0.662720 0.000000 0.015686
0.870605 0.050995 0.074524
1.000000 0.133331 0.141174
1.000000 0.215698 0.211761
1.000000 0.309814 0.298035
0.000000 0.215668 0.000000
0.211761 0.211761 0.000000
0.431366 0.219604 0.000000
0.658813 0.227448 0.007843
0.862762 0.239197 0.066681
1.000000 0.254913 0.141174
1.000000 0.294128 0.215698
1.000000 0.360779 0.301971
0.000000 0.439209 0.000000
0.223511 0.443115 0.000000
0.431366 0.423523 0.000000
0.643127 0.423523 0.000000
0.843170 0.423523 0.015686
0.992157 0.419586 0.125488
1.000000 0.423523 0.215698
1.000000 0.454895 0.305878
0.000000 0.639191 0.000000
0.199982 0.647034 0.000000
0.423523 0.631348 0.000000
0.623505 0.615662 0.000000
0.815704 0.603912 0.000000
0.968628 0.584290 0.070618
1.000000 0.568604 0.200012
1.000000 0.572540 0.298035
0.000000 0.796082 0.000000
0.188232 0.800018 0.000000
0.399994 0.792175 0.000000
0.596069 0.784332 0.000000
0.776489 0.764709 0.000000
0.933350 0.741180 0.000000
1.000000 0.713745 0.152954
1.000000 0.694122 0.274506
0.121582 0.905884 0.000000
0.235291 0.905884 0.000000
0.396057 0.905884 0.000000
0.564697 0.901978 0.000000
0.729431 0.894135 0.000000
0.886292 0.874512 0.003937
1.000000 0.847076 0.121582
1.000000 0.815704 0.227448
0.258820 0.992157 0.160797
0.313721 0.992157 0.160797
0.419586 0.992157 0.164703
0.552917 0.988251 0.164703
0.694122 0.984314 0.152954
0.835297 0.976471 0.145111
0.972565 0.956879 0.160797
1.000000 0.929413 0.200012
0.329407 1.000000 0.231384
0.364716 1.000000 0.235291
0.439209 1.000000 0.235291
0.545074 1.000000 0.231384
0.662750 1.000000 0.211761
0.796082 1.000000 0.184296
0.929413 1.000000 0.137268
1.000000 1.000000 0.098053
0.000000 0.000000 0.223511
0.223511 0.000000 0.215668
0.439209 0.000000 0.215668
0.654877 0.027435 0.227448
0.854919 0.078430 0.239197
1.000000 0.160797 0.262756
1.000000 0.243134 0.301971
1.000000 0.337250 0.360779
0.000000 0.215668 0.207825
0.219604 0.211761 0.203918
0.431366 0.223511 0.215668
0.650970 0.231354 0.223511
0.850983 0.243134 0.235291
0.992157 0.266663 0.262756
1.000000 0.313721 0.305878
1.000000 0.380402 0.368622
0.000000 0.435272 0.188232
0.215668 0.439209 0.192139
0.431366 0.423523 0.192139
0.639191 0.423523 0.199982
0.835327 0.423523 0.219604
0.980408 0.423523 0.254913
1.000000 0.439209 0.305878
1.000000 0.470581 0.372559
0.000000 0.635284 0.141174
0.188232 0.643127 0.149017
0.423523 0.631348 0.149017
0.623505 0.615662 0.160767
0.811798 0.599976 0.176483
0.960785 0.584290 0.231384
1.000000 0.576447 0.298035
1.000000 0.584290 0.368622
0.000000 0.792175 0.129395
0.200012 0.796082 0.141174
0.403900 0.792175 0.137268
0.596069 0.780396 0.141174
0.772552 0.764709 0.156860
0.933350 0.741180 0.192139
1.000000 0.717651 0.266663
1.000000 0.701965 0.352936
0.168640 0.901978 0.192139
0.266663 0.905884 0.200012
0.407837 0.905884 0.200012
0.568604 0.901978 0.196075
0.733337 0.890198 0.192169
0.886292 0.874512 0.203918
1.000000 0.847076 0.243134
1.000000 0.819611 0.313721
0.294128 0.988251 0.270599
0.341187 0.988251 0.274506
0.439209 0.988251 0.274506
0.564697 0.988251 0.274506
0.698059 0.984314 0.262756
0.839233 0.972565 0.258820
0.972565 0.956879 0.262726
1.000000 0.933350 0.290192
0.356873 1.000000 0.309814
0.392151 1.000000 0.313721
0.458832 1.000000 0.313721
0.556854 1.000000 0.309814
0.670593 1.000000 0.298035
0.800018 1.000000 0.274506
0.929413 1.000000 0.243134
1.000000 1.000000 0.219604
0.000000 0.000000 0.443115
0.227448 0.000000 0.443115
0.439209 0.000000 0.427429
0.662720 0.000000 0.427429
0.850983 0.058838 0.423523
0.984314 0.207855 0.431366
1.000000 0.309814 0.454895
1.000000 0.399994 0.494110
0.000000 0.192139 0.427429
0.203918 0.196075 0.431366
0.439209 0.211761 0.423523
0.654877 0.211761 0.419586
0.839233 0.247070 0.423523
0.976471 0.305878 0.435272
1.000000 0.368622 0.458801
1.000000 0.439209 0.498016
0.000000 0.423523 0.411743
0.152954 0.427429 0.411743
0.423523 0.411743 0.399994
0.627441 0.419586 0.407837
0.819611 0.431366 0.415680
0.960785 0.447052 0.435272
1.000000 0.478424 0.466644
1.000000 0.521545 0.505859
0.000000 0.619598 0.376465
0.160767 0.627441 0.380371
0.415680 0.623505 0.380371
0.619598 0.607819 0.380371
0.800018 0.599976 0.392151
0.945099 0.596069 0.423523
1.000000 0.599976 0.462738
1.000000 0.615662 0.509796
0.019653 0.780396 0.368622
0.231384 0.784332 0.376465
0.415680 0.784332 0.376465
0.596069 0.776489 0.376465
0.768646 0.756866 0.376465
0.925507 0.741180 0.392151
1.000000 0.725494 0.443115
1.000000 0.721588 0.494110
0.243134 0.894135 0.388214
0.321564 0.898041 0.396057
0.443115 0.898041 0.399994
0.584290 0.894135 0.396057
0.737274 0.886292 0.392151
0.886292 0.870605 0.396057
1.000000 0.850983 0.415680
1.000000 0.827454 0.462738
0.360779 0.980408 0.427429
0.399994 0.980408 0.431366
0.482330 0.980408 0.435272
0.588226 0.980408 0.435272
0.713745 0.976471 0.427429
0.843140 0.968628 0.423523
0.968628 0.952942 0.419586
1.000000 0.933350 0.435272
0.415680 1.000000 0.447052
0.443146 1.000000 0.447052
0.501953 1.000000 0.450958
0.588226 1.000000 0.447052
0.690216 1.000000 0.439209
0.811768 1.000000 0.423523
0.933350 1.000000 0.399994
1.000000 1.000000 0.384308
0.000000 0.000000 0.654877
0.207825 0.000000 0.658813
0.447052 0.000000 0.654877
0.654877 0.000000 0.635284
0.850983 0.000000 0.619598
0.988251 0.164734 0.592133
1.000000 0.337250 0.596069
1.000000 0.462738 0.627441
0.000000 0.180389 0.647034
0.180389 0.180389 0.650970
0.439209 0.199982 0.647034
0.650970 0.207825 0.627441
0.843140 0.203918 0.611755
0.976471 0.290192 0.592133
1.000000 0.407837 0.603912
1.000000 0.505890 0.635284
0.000000 0.392151 0.623505
0.019623 0.392151 0.623505
0.407837 0.396057 0.619598
0.631348 0.407837 0.607819
0.815704 0.415680 0.596069
0.945099 0.470581 0.599976
1.000000 0.529388 0.623505
1.000000 0.580383 0.647064
0.000000 0.607819 0.588226
0.000000 0.611755 0.592133
0.364685 0.603912 0.580383
0.599976 0.588226 0.572540
0.772583 0.599976 0.588226
0.913727 0.619598 0.607819
1.000000 0.643127 0.631348
1.000000 0.666656 0.654877
0.000000 0.764709 0.549011
0.207855 0.768646 0.556854
0.419617 0.764709 0.564697
0.603912 0.760803 0.572540
0.760803 0.749023 0.568604
0.901978 0.745117 0.588226
1.000000 0.745117 0.619598
1.000000 0.749023 0.647034
0.305878 0.882355 0.560760
0.376465 0.886292 0.568604
0.482361 0.886292 0.576447
0.611755 0.882355 0.580383
0.745117 0.878448 0.580383
0.878448 0.866669 0.580383
0.996063 0.850983 0.592133
1.000000 0.839233 0.623505
0.427460 0.972565 0.584290
0.462738 0.972565 0.588226
0.533325 0.972565 0.592133
0.627441 0.968628 0.596069
0.733337 0.968628 0.596069
0.850983 0.964722 0.592133
0.964722 0.952942 0.588226
1.000000 0.933350 0.596069
0.486267 1.000000 0.592133
0.509796 1.000000 0.596069
0.560760 1.000000 0.596069
0.635284 1.000000 0.599976
0.725494 1.000000 0.596069
0.827454 1.000000 0.588226
0.941193 1.000000 0.568604
1.000000 1.000000 0.556854
0.000000 0.000000 0.819611
0.184296 0.000000 0.819611
0.415680 0.000000 0.819611
0.627441 0.086273 0.807861
0.815704 0.066681 0.796082
0.980408 0.113739 0.768646
1.000000 0.290192 0.737274
1.000000 0.458832 0.737274
0.000000 0.172546 0.807861
0.168610 0.176453 0.811768
0.411743 0.180389 0.811768
0.627441 0.235291 0.803925
0.811768 0.231384 0.788239
0.972565 0.258820 0.764709
1.000000 0.368622 0.737274
1.000000 0.505890 0.741180
0.000000 0.368622 0.784332
0.109802 0.372528 0.788239
0.392151 0.384308 0.788239
0.615662 0.415680 0.784332
0.800018 0.419586 0.772552
0.952942 0.443115 0.752960
1.000000 0.513702 0.741180
1.000000 0.599976 0.752960
0.000000 0.564697 0.760803
0.000000 0.568604 0.764709
0.341156 0.560760 0.756866
0.588226 0.576447 0.752960
0.776489 0.596069 0.749023
0.909821 0.619598 0.741180
1.000000 0.658813 0.749023
1.000000 0.698029 0.768646
0.000000 0.752960 0.733337
0.000000 0.756866 0.733337
0.345093 0.749023 0.729431
0.564697 0.741180 0.721588
0.745117 0.733337 0.721588
0.878448 0.749023 0.741180
0.984314 0.764709 0.756866
1.000000 0.780396 0.772552
0.227448 0.874512 0.694122
0.317657 0.874512 0.698059
0.454895 0.870605 0.701965
0.611755 0.866669 0.717651
0.749023 0.870605 0.729431
0.870605 0.862762 0.729431
0.976471 0.854919 0.741180
1.000000 0.854919 0.764709
0.443146 0.964722 0.705902
0.482361 0.964722 0.709808
0.560791 0.960785 0.717651
0.658813 0.960785 0.733337
0.760803 0.960785 0.741180
0.858826 0.956879 0.737274
0.956879 0.949036 0.737274
1.000000 0.937256 0.741180
0.541168 1.000000 0.717651
0.564697 1.000000 0.721588
0.611755 1.000000 0.725494
0.682343 1.000000 0.733337
0.760803 1.000000 0.741180
0.850983 1.000000 0.733337
0.945099 1.000000 0.721588
1.000000 1.000000 0.717651
0.000000 0.000000 0.925507
0.184296 0.000000 0.925507
0.384308 0.000000 0.925507
0.584290 0.129395 0.925507
0.768646 0.227448 0.917664
0.933350 0.223541 0.909821
1.000000 0.262756 0.878448
1.000000 0.415680 0.847076
0.000000 0.176483 0.917664
0.192139 0.184296 0.917664
0.388214 0.196075 0.917664
0.588226 0.247040 0.917664
0.768646 0.313721 0.913727
0.929413 0.309814 0.901978
1.000000 0.345093 0.878448
1.000000 0.466675 0.847076
0.000000 0.360779 0.901978
0.196075 0.368622 0.901978
0.392151 0.380371 0.901978
0.588226 0.407837 0.905884
0.768646 0.462738 0.901978
0.921570 0.462738 0.894135
1.000000 0.490173 0.870605
1.000000 0.568634 0.850983
0.000000 0.529388 0.882355
0.149017 0.537231 0.882355
0.376465 0.545074 0.882355
0.584290 0.572540 0.882355
0.764709 0.615662 0.882355
0.901978 0.619598 0.878448
1.000000 0.639191 0.858826
1.000000 0.686249 0.854919
0.000000 0.705902 0.870605
0.101959 0.709808 0.870605
0.352936 0.709808 0.866669
0.549011 0.709808 0.862762
0.737274 0.729431 0.862762
0.882355 0.749023 0.858826
0.980377 0.764709 0.854919
1.000000 0.796082 0.862762
0.000000 0.866669 0.847076
0.176483 0.866669 0.847076
0.372528 0.866669 0.847076
0.556854 0.862762 0.843140
0.717651 0.854919 0.839233
0.858826 0.850983 0.839233
0.956879 0.862762 0.854919
1.000000 0.874512 0.870605
0.356873 0.964722 0.811768
0.411774 0.964722 0.815704
0.509796 0.960785 0.819611
0.635284 0.952942 0.827454
0.760803 0.952942 0.839233
0.866669 0.952942 0.850983
0.952942 0.945099 0.850983
1.000000 0.945099 0.858826
0.541168 1.000000 0.815704
0.564697 1.000000 0.815704
0.623535 1.000000 0.823547
0.701965 1.000000 0.835297
0.784332 1.000000 0.847076
0.870605 1.000000 0.850983
0.952942 1.000000 0.847076
1.000000 1.000000 0.843140
0.094116 0.050995 1.000000
0.215668 0.066681 1.000000
0.376465 0.098053 1.000000
0.549011 0.156860 1.000000
0.729431 0.290192 1.000000
0.878448 0.360779 0.996094
1.000000 0.352936 0.988251
1.000000 0.392151 0.964722
0.129425 0.196075 1.000000
0.235291 0.207825 1.000000
0.388214 0.223511 1.000000
0.556854 0.258820 1.000000
0.729431 0.352936 1.000000
0.878448 0.415680 0.992157
1.000000 0.407837 0.984314
1.000000 0.447052 0.960785
0.176483 0.364685 0.988251
0.270569 0.372528 0.988251
0.411743 0.388214 0.988251
0.572540 0.415680 0.992157
0.737274 0.478424 0.988251
0.878448 0.529419 0.984314
1.000000 0.525482 0.976471
1.000000 0.552948 0.956879
0.192169 0.521545 0.976471
0.282349 0.529388 0.976471
0.427429 0.541168 0.976471
0.584290 0.568604 0.976471
0.741180 0.607849 0.976471
0.874512 0.654907 0.972565
0.988251 0.650970 0.964722
1.000000 0.670593 0.949036
0.164703 0.674530 0.968628
0.262756 0.678436 0.964722
0.407837 0.682373 0.964722
0.572540 0.694122 0.960785
0.733337 0.725494 0.960785
0.870605 0.764709 0.960785
0.972565 0.768646 0.956848
1.000000 0.784332 0.945099
0.160797 0.823547 0.960785
0.262756 0.827454 0.960785
0.407837 0.827454 0.956879
0.564697 0.827454 0.952942
0.709808 0.831390 0.949036
0.854919 0.847076 0.945099
0.960785 0.862762 0.945099
1.000000 0.878448 0.941193
0.258820 0.956879 0.941193
0.329407 0.956879 0.941193
0.443146 0.956879 0.941193
0.580383 0.952942 0.937256
0.713745 0.949036 0.937256
0.839233 0.941193 0.933350
0.945099 0.941193 0.933350
1.000000 0.952942 0.949036
0.458832 1.000000 0.909821
0.494110 1.000000 0.909821
0.564697 1.000000 0.909821
0.662720 1.000000 0.913727
0.768646 1.000000 0.921570
0.874512 1.000000 0.933350
0.956879 1.000000 0.945099
1.000000 1.000000 0.949036
0.196075 0.129425 1.000000
0.266663 0.141174 1.000000
0.388214 0.168610 1.000000
0.529388 0.211761 1.000000
0.690216 0.317657 1.000000
0.839233 0.439209 1.000000
0.960785 0.490204 1.000000
1.000000 0.478424 1.000000
0.223541 0.227448 1.000000
0.286285 0.235291 1.000000
0.399994 0.254883 1.000000
0.541168 0.286255 1.000000
0.694122 0.364716 1.000000
0.843140 0.478424 1.000000
0.960785 0.525482 1.000000
1.000000 0.513733 1.000000
0.270599 0.372528 1.000000
0.325500 0.380371 1.000000
0.427429 0.392151 1.000000
0.560760 0.419586 1.000000
0.705902 0.466675 1.000000
0.847076 0.560791 1.000000
0.960785 0.603912 1.000000
1.000000 0.592163 1.000000
0.309814 0.521545 1.000000
0.360779 0.525482 1.000000
0.458801 0.537231 1.000000
0.584290 0.564697 1.000000
0.717651 0.596069 1.000000
0.850983 0.658813 1.000000
0.956879 0.698029 1.000000
1.000000 0.690186 1.000000
0.313721 0.654907 1.000000
0.364685 0.658844 1.000000
0.462738 0.666687 1.000000
0.596069 0.686279 1.000000
0.729431 0.717651 1.000000
0.850983 0.752960 1.000000
0.952942 0.792175 1.000000
1.000000 0.788239 1.000000
0.309814 0.788239 1.000000
0.360779 0.788239 1.000000
0.458832 0.792175 1.000000
0.588226 0.800018 1.000000
0.721588 0.815704 1.000000
0.847076 0.839233 1.000000
0.949036 0.870605 1.000000
1.000000 0.874512 1.000000
0.321564 0.909821 1.000000
0.368622 0.909821 1.000000
0.466675 0.913727 1.000000
0.588226 0.913727 1.000000
0.717651 0.917664 1.000000
0.835297 0.925507 1.000000
0.941193 0.937256 1.000000
1.000000 0.952942 1.000000
0.352936 1.000000 1.000000
0.396088 1.000000 1.000000
0.486267 1.000000 1.000000
0.603912 1.000000 1.000000
0.729431 1.000000 1.000000
0.850983 1.000000 1.000000
0.956879 1.000000 1.000000
1.000000 1.000000 1.000000
