ios/Runner/Resources/daily2.cube
#Created by: Adobe Photoshop Export Color Lookup Plugin
TITLE "daily2"

#LUT size
LUT_3D_SIZE 8

#data domain
DOMAIN_MIN 0.0 0.0 0.0
DOMAIN_MAX 1.0 1.0 1.0

#LUT data points
0.000000 0.000000 0.000000
0.274506 0.000000 0.000000
0.509796 0.000000 0.000000
0.678406 0.003906 0.000000
0.827454 0.090210 0.015686
0.988251 0.117645 0.074524
1.000000 0.145111 0.113739
1.000000 0.188232 0.152954
0.000000 0.266663 0.000000
0.250977 0.250977 0.000000
0.478424 0.254883 0.000000
0.658813 0.250977 0.003906
0.807861 0.250977 0.058838
0.968628 0.254883 0.098053
1.000000 0.258820 0.129425
1.000000 0.270599 0.164703
0.000000 0.478424 0.000000
0.223511 0.478424 0.000000
0.447052 0.450958 0.000000
0.615662 0.423523 0.000000
0.768646 0.415680 0.082367
0.933350 0.411743 0.121582
1.000000 0.411743 0.156860
1.000000 0.403900 0.184326
0.000000 0.611755 0.000000
0.176453 0.615662 0.000000
0.392151 0.599976 0.000000
0.568604 0.572540 0.000000
0.729431 0.552917 0.000000
0.894135 0.556854 0.078461
1.000000 0.556854 0.149017
1.000000 0.541168 0.184326
0.000000 0.749023 0.000000
0.113708 0.752960 0.000000
0.348999 0.741180 0.000000
0.537231 0.729431 0.000000
0.701965 0.705902 0.000000
0.862762 0.690216 0.000000
1.000000 0.686279 0.011749
1.000000 0.666687 0.113708
0.000000 0.882355 0.000000
0.000000 0.882355 0.000000
0.294098 0.878448 0.000000
0.494110 0.870605 0.000000
0.670593 0.854919 0.000000
0.831390 0.835297 0.000000
0.976471 0.811768 0.000000
1.000000 0.784332 0.000000
0.000000 0.976471 0.000000
0.000000 0.972565 0.000000
0.207825 0.972565 0.000000
0.431335 0.972565 0.000000
0.611786 0.964722 0.000000
0.776489 0.952942 0.000000
0.925507 0.933350 0.000000
1.000000 0.901978 0.000000
0.000000 1.000000 0.000000
0.000000 1.000000 0.000000
0.000000 1.000000 0.000000
0.321533 1.000000 0.000000
0.521576 1.000000 0.000000
0.701965 1.000000 0.000000
0.858826 1.000000 0.000000
1.000000 1.000000 0.000000
0.000000 0.000000 0.294098
0.282349 0.000000 0.290192
0.521545 0.000000 0.266663
0.674500 0.000000 0.250977
0.827454 0.086273 0.247040
0.988251 0.117645 0.243134
1.000000 0.156860 0.250977
1.000000 0.203918 0.258820
0.000000 0.266663 0.278412
0.247040 0.250977 0.270569
0.482330 0.250977 0.266663
0.647034 0.258820 0.262726
0.803925 0.258820 0.254883
0.968628 0.258820 0.254883
1.000000 0.266663 0.258820
1.000000 0.282349 0.266663
0.000000 0.470581 0.243134
0.207825 0.470581 0.239197
0.443115 0.447052 0.231354
0.607819 0.427429 0.247040
0.756897 0.423523 0.262726
0.929413 0.423523 0.266663
1.000000 0.415680 0.274506
1.000000 0.407837 0.278412
0.000000 0.607819 0.215668
0.196075 0.607819 0.219604
0.396057 0.596069 0.203918
0.568604 0.572540 0.203918
0.725494 0.552917 0.207855
0.886292 0.560760 0.250977
1.000000 0.560760 0.270569
1.000000 0.541168 0.274506
0.000000 0.752960 0.188232
0.141144 0.752960 0.188232
0.356842 0.745117 0.180389
0.541168 0.729431 0.164703
0.701965 0.705902 0.168610
0.858826 0.690216 0.172546
1.000000 0.686279 0.207825
1.000000 0.666687 0.235291
0.000000 0.882355 0.137238
0.000000 0.886292 0.137238
0.301941 0.882355 0.129395
0.498016 0.870605 0.109802
0.670593 0.858826 0.086243
0.831390 0.835297 0.090179
0.976471 0.811768 0.105865
1.000000 0.784332 0.125458
0.000000 0.976471 0.000000
0.000000 0.976471 0.000000
0.219574 0.976471 0.000000
0.431366 0.972565 0.000000
0.611786 0.964722 0.000000
0.776489 0.952942 0.000000
0.925507 0.933350 0.000000
1.000000 0.901978 0.000000
0.000000 1.000000 0.000000
0.000000 1.000000 0.000000
0.000000 1.000000 0.000000
0.329407 1.000000 0.000000
0.525513 1.000000 0.000000
0.701965 1.000000 0.000000
0.858826 1.000000 0.000000
1.000000 1.000000 0.000000
0.000000 0.000000 0.509796
0.223511 0.000000 0.505859
0.478424 0.000000 0.494110
0.678406 0.000000 0.466644
0.831390 0.000000 0.439209
1.000000 0.047089 0.427429
1.000000 0.141174 0.415680
1.000000 0.211761 0.403900
0.000000 0.235291 0.490173
0.196075 0.223511 0.490173
0.462738 0.207825 0.486267
0.658813 0.207825 0.458801
0.815704 0.235291 0.443115
0.980408 0.239227 0.431366
1.000000 0.254913 0.415680
1.000000 0.282349 0.407837
0.000000 0.454895 0.474487
0.180389 0.450958 0.470581
0.427429 0.431366 0.454895
0.592133 0.431366 0.447052
0.764709 0.423523 0.439209
0.941193 0.411774 0.427429
1.000000 0.403931 0.415680
1.000000 0.399994 0.407837
0.011749 0.596069 0.431366
0.215698 0.596069 0.431366
0.396057 0.584290 0.423523
0.560760 0.564697 0.411774
0.713745 0.560760 0.415680
0.890198 0.564697 0.415680
1.000000 0.552917 0.411743
1.000000 0.533325 0.399994
0.000000 0.749023 0.388214
0.066620 0.752960 0.388214
0.337250 0.745117 0.380371
0.533325 0.729431 0.372528
0.698059 0.701965 0.368622
0.858826 0.694122 0.364685
1.000000 0.686279 0.376465
1.000000 0.662750 0.376465
0.000000 0.886292 0.333313
0.000000 0.886292 0.333313
0.258820 0.882355 0.329407
0.478424 0.874512 0.325470
0.666687 0.858826 0.317627
0.831390 0.835297 0.317627
0.976471 0.811768 0.313721
1.000000 0.784332 0.313721
0.000000 0.976471 0.266663
0.000000 0.976471 0.270569
0.164673 0.976471 0.266663
0.411743 0.972565 0.258820
0.600006 0.964722 0.247040
0.772552 0.952942 0.250977
0.925507 0.933350 0.254883
1.000000 0.901978 0.258820
0.000000 1.000000 0.117615
0.000000 1.000000 0.121552
0.000000 1.000000 0.097992
0.321564 1.000000 0.058807
0.521576 1.000000 0.023499
0.698059 1.000000 0.066620
0.858826 1.000000 0.141144
0.996063 1.000000 0.207825
0.000000 0.000000 0.662720
0.172546 0.000000 0.658813
0.411774 0.000000 0.654877
0.619598 0.000000 0.639191
0.819641 0.000000 0.631348
0.992157 0.000000 0.611755
1.000000 0.019623 0.576447
1.000000 0.141174 0.541168
0.000000 0.215668 0.658813
0.156860 0.211761 0.658813
0.403900 0.192139 0.647034
0.611755 0.176453 0.631348
0.807861 0.168610 0.627441
0.984314 0.180389 0.607819
1.000000 0.192169 0.572540
1.000000 0.235291 0.537231
0.000000 0.419586 0.635284
0.137238 0.419586 0.639191
0.388214 0.403900 0.627441
0.584290 0.392151 0.607819
0.780426 0.380371 0.607819
0.964722 0.364685 0.588226
1.000000 0.360779 0.560760
1.000000 0.384308 0.541168
0.000000 0.584290 0.603912
0.141174 0.584290 0.607819
0.356873 0.572540 0.596069
0.541168 0.545074 0.576447
0.729431 0.545074 0.568604
0.909821 0.541168 0.564697
1.000000 0.533325 0.552917
1.000000 0.525482 0.537231
0.000000 0.737274 0.572540
0.000000 0.741180 0.572540
0.282318 0.733337 0.556854
0.494110 0.721588 0.537231
0.690216 0.698059 0.529388
0.862762 0.686279 0.529388
1.000000 0.678436 0.529388
1.000000 0.654907 0.513702
0.000000 0.882355 0.509796
0.000000 0.886292 0.509796
0.152924 0.878448 0.501953
0.431366 0.870605 0.490173
0.643158 0.858826 0.478424
0.827454 0.839233 0.474487
0.980377 0.807861 0.462738
1.000000 0.776489 0.466644
0.000000 0.972565 0.447052
0.000000 0.972565 0.450958
0.043091 0.972565 0.443115
0.368622 0.968628 0.431366
0.576477 0.964722 0.423523
0.760803 0.956879 0.419586
0.925507 0.933350 0.419586
1.000000 0.898041 0.415680
0.000000 1.000000 0.376434
0.000000 1.000000 0.376465
0.000000 1.000000 0.368591
0.294098 1.000000 0.356842
0.501984 1.000000 0.348999
0.686279 1.000000 0.348999
0.850983 1.000000 0.364685
0.996063 1.000000 0.396057
0.000000 0.011780 0.839233
0.082306 0.000000 0.831390
0.364685 0.000000 0.819611
0.572510 0.000000 0.803955
0.764709 0.000000 0.792175
0.968628 0.000000 0.796082
1.000000 0.000000 0.756866
1.000000 0.007843 0.698059
0.000000 0.207825 0.831390
0.039185 0.203918 0.831390
0.356842 0.188232 0.815704
0.568604 0.168610 0.800018
0.760803 0.137238 0.788239
0.960785 0.101929 0.788239
1.000000 0.113708 0.752960
1.000000 0.172546 0.690216
0.000000 0.396057 0.811768
0.000000 0.392151 0.815704
0.337250 0.380371 0.803925
0.549011 0.368622 0.788239
0.741180 0.348999 0.772552
0.949036 0.325470 0.776489
1.000000 0.309784 0.733337
1.000000 0.333313 0.678436
0.000000 0.560760 0.780396
0.000000 0.560760 0.784332
0.262726 0.541168 0.776489
0.490173 0.517639 0.764740
0.709808 0.501953 0.752960
0.933350 0.490173 0.749054
1.000000 0.490173 0.705902
1.000000 0.513702 0.678436
0.000000 0.721588 0.752960
0.000000 0.725494 0.752960
0.184265 0.713745 0.745117
0.439178 0.698059 0.733337
0.662750 0.674530 0.713745
0.870575 0.682373 0.709808
1.000000 0.682373 0.701965
1.000000 0.678436 0.690216
0.000000 0.874512 0.701965
0.000000 0.878448 0.705902
0.000000 0.874512 0.694122
0.403900 0.862762 0.682373
0.635315 0.847076 0.674530
0.823547 0.831390 0.662750
0.968628 0.803925 0.654907
1.000000 0.788239 0.662750
0.000000 0.972565 0.627472
0.000000 0.972565 0.631378
0.156830 0.964722 0.635315
0.439209 0.956879 0.643158
0.611786 0.952942 0.643158
0.768646 0.949036 0.627472
0.921570 0.929413 0.607849
1.000000 0.898041 0.607849
0.149017 1.000000 0.611786
0.254913 1.000000 0.619629
0.337280 1.000000 0.615723
0.454926 1.000000 0.607880
0.584351 1.000000 0.603943
0.721588 1.000000 0.596100
0.862762 1.000000 0.596100
0.996063 1.000000 0.615723
0.000000 0.078430 0.949036
0.000000 0.066681 0.949036
0.301941 0.035309 0.945099
0.513702 0.000000 0.937256
0.705902 0.000000 0.929413
0.890198 0.000000 0.925507
1.000000 0.000000 0.913727
1.000000 0.000000 0.862762
0.000000 0.211761 0.945099
0.000000 0.211761 0.945099
0.301941 0.203918 0.941193
0.513702 0.188232 0.933350
0.701965 0.164703 0.925507
0.886292 0.113708 0.917664
1.000000 0.000000 0.909821
1.000000 0.039185 0.858826
0.000000 0.376465 0.933350
0.000000 0.376465 0.933350
0.290192 0.364685 0.929413
0.494110 0.352936 0.925507
0.686279 0.337250 0.917664
0.874512 0.309784 0.909821
1.000000 0.266663 0.901978
1.000000 0.266663 0.847076
0.000000 0.525482 0.913727
0.000000 0.521545 0.917664
0.215668 0.509796 0.913727
0.443115 0.494110 0.909821
0.651001 0.478424 0.905884
0.854919 0.458801 0.898041
1.000000 0.435272 0.882355
1.000000 0.447052 0.823547
0.000000 0.678436 0.894135
0.000000 0.674530 0.898041
0.000000 0.666687 0.894135
0.380371 0.651001 0.890198
0.619629 0.643158 0.882355
0.831390 0.631378 0.874512
1.000000 0.635315 0.854919
1.000000 0.662750 0.815704
0.000000 0.839233 0.874512
0.000000 0.843140 0.874512
0.000000 0.839233 0.874512
0.345062 0.835297 0.866669
0.603943 0.827454 0.854919
0.800018 0.807861 0.835297
0.945099 0.815704 0.831390
1.000000 0.823547 0.831390
0.000000 0.972565 0.815704
0.000000 0.972565 0.815704
0.066650 0.968628 0.815704
0.443115 0.960785 0.815704
0.654907 0.945099 0.819611
0.803925 0.933350 0.823547
0.917664 0.921570 0.807861
1.000000 0.913727 0.819611
0.180389 1.000000 0.756866
0.294128 1.000000 0.764709
0.443115 1.000000 0.776489
0.599976 1.000000 0.796082
0.741180 1.000000 0.827454
0.815704 1.000000 0.823547
0.901978 1.000000 0.819611
0.992157 0.992157 0.831390
0.000000 0.121582 1.000000
0.000000 0.117645 1.000000
0.250977 0.113739 1.000000
0.454895 0.098053 1.000000
0.631378 0.066681 1.000000
0.803925 0.000000 1.000000
0.972565 0.000000 1.000000
1.000000 0.000000 0.992157
0.000000 0.223511 1.000000
0.000000 0.223511 1.000000
0.262726 0.219604 1.000000
0.454895 0.211761 1.000000
0.631378 0.199982 1.000000
0.803925 0.164703 1.000000
0.968628 0.094116 1.000000
1.000000 0.000000 0.988251
0.000000 0.364685 1.000000
0.000000 0.364685 1.000000
0.262726 0.356842 1.000000
0.447052 0.348999 1.000000
0.619629 0.337250 1.000000
0.788239 0.309784 1.000000
0.960785 0.274506 0.996094
1.000000 0.239197 0.984314
0.000000 0.494110 0.992157
0.000000 0.494110 0.992157
0.223511 0.486267 0.992157
0.411743 0.474487 0.992157
0.588257 0.462738 0.992157
0.768646 0.439209 0.992157
0.949036 0.415680 0.988251
1.000000 0.399994 0.976471
0.000000 0.623535 0.984314
0.000000 0.623535 0.984314
0.121521 0.619629 0.980408
0.396057 0.619629 0.976471
0.576477 0.611786 0.972565
0.752960 0.600006 0.972565
0.937256 0.588257 0.972534
1.000000 0.600006 0.956848
0.000000 0.772552 0.976471
0.000000 0.772552 0.976471
0.000000 0.772552 0.972565
0.368591 0.772552 0.964722
0.592163 0.776489 0.956848
0.768646 0.780396 0.949005
0.921570 0.780396 0.945099
1.000000 0.807861 0.937256
0.000000 0.929413 0.956879
0.000000 0.933319 0.956879
0.129395 0.929413 0.956879
0.435272 0.929413 0.952942
0.635315 0.925507 0.945099
0.796082 0.921570 0.937256
0.913727 0.917664 0.929413
0.996063 0.933350 0.941193
0.333344 1.000000 0.913727
0.399994 1.000000 0.913727
0.505890 1.000000 0.917664
0.635284 1.000000 0.921570
0.760803 1.000000 0.925507
0.866669 0.996063 0.933350
0.941193 0.996063 0.945099
0.992157 0.996063 0.952942
0.000000 0.101959 1.000000
0.000000 0.094116 1.000000
0.168610 0.074524 1.000000
0.376465 0.031372 1.000000
0.549042 0.000000 1.000000
0.713745 0.000000 1.000000
0.878448 0.000000 1.000000
1.000000 0.000000 1.000000
0.000000 0.199982 1.000000
0.000000 0.199982 1.000000
0.188232 0.188232 1.000000
0.384308 0.172546 1.000000
0.552948 0.149017 1.000000
0.713745 0.133331 1.000000
0.878448 0.098022 1.000000
1.000000 0.035278 1.000000
0.000000 0.337250 1.000000
0.000000 0.337250 1.000000
0.211761 0.329407 1.000000
0.384308 0.313721 1.000000
0.545105 0.298035 1.000000
0.705902 0.282349 1.000000
0.870605 0.262726 1.000000
1.000000 0.235291 1.000000
0.000000 0.462738 1.000000
0.000000 0.462738 1.000000
0.199982 0.454895 1.000000
0.364685 0.439209 1.000000
0.521576 0.423523 1.000000
0.682373 0.407837 1.000000
0.858826 0.396057 1.000000
1.000000 0.380371 1.000000
0.000000 0.580414 1.000000
0.000000 0.584320 1.000000
0.223511 0.584320 1.000000
0.380371 0.580414 1.000000
0.521576 0.568634 1.000000
0.682373 0.560791 1.000000
0.854919 0.560791 1.000000
1.000000 0.564728 1.000000
0.000000 0.701965 1.000000
0.000000 0.705902 1.000000
0.027435 0.705902 1.000000
0.388214 0.717651 1.000000
0.603943 0.749023 1.000000
0.741180 0.756866 1.000000
0.882355 0.760803 1.000000
1.000000 0.776489 1.000000
0.000000 0.854919 1.000000
0.000000 0.858826 1.000000
0.211761 0.862732 1.000000
0.454895 0.870575 1.000000
0.647064 0.882355 1.000000
0.807861 0.901978 1.000000
0.921570 0.921570 0.996063
1.000000 0.933350 0.996063
0.443146 0.992157 1.000000
0.482361 0.992157 1.000000
0.564697 0.992157 1.000000
0.678406 0.992157 1.000000
0.796082 0.992157 1.000000
0.898041 0.992157 0.996063
0.968628 0.996063 1.000000
1.000000 1.000000 1.000000
