ios/Runner/Resources/film.cube
#Created by: Adobe Photoshop Export Color Lookup Plugin
TITLE "film.png"

#LUT size
LUT_3D_SIZE 8

#data domain
DOMAIN_MIN 0.0 0.0 0.0
DOMAIN_MAX 1.0 1.0 1.0

#LUT data points
0.000000 0.000000 0.000000
0.203918 0.007843 0.007843
0.411743 0.011780 0.007843
0.615662 0.035278 0.039215
0.772552 0.105896 0.101959
0.878448 0.184326 0.176483
0.988251 0.262756 0.254913
1.000000 0.349030 0.345093
0.000000 0.215668 0.000000
0.211761 0.211761 0.003937
0.419586 0.219604 0.015686
0.623505 0.231354 0.062744
0.772552 0.243134 0.121582
0.878448 0.274506 0.192169
0.984314 0.325500 0.270599
1.000000 0.396088 0.360779
0.000000 0.423523 0.003906
0.223511 0.427429 0.007843
0.423523 0.419586 0.035278
0.615662 0.419586 0.086273
0.768646 0.415680 0.156860
0.870605 0.415680 0.231384
0.980408 0.443115 0.309814
1.000000 0.490204 0.392151
0.105865 0.596069 0.094116
0.243134 0.596069 0.098022
0.415680 0.592133 0.101959
0.584290 0.580383 0.137238
0.733337 0.564697 0.188232
0.858826 0.560760 0.270599
0.976471 0.572540 0.352936
1.000000 0.603912 0.435303
0.247070 0.701965 0.223541
0.309814 0.705902 0.227448
0.423523 0.705902 0.227478
0.560760 0.701965 0.231384
0.701965 0.690216 0.254913
0.831390 0.682373 0.290192
0.972565 0.698059 0.372559
1.000000 0.733337 0.474518
0.360779 0.819611 0.341187
0.392151 0.815704 0.341187
0.470581 0.815704 0.341187
0.576477 0.815704 0.345093
0.701965 0.815704 0.345093
0.835297 0.819611 0.360779
0.972565 0.827454 0.396088
1.000000 0.858826 0.490204
0.447052 0.980408 0.447052
0.474518 0.984314 0.450989
0.533325 0.980408 0.450989
0.623535 0.976471 0.447052
0.737274 0.976471 0.450989
0.858826 0.976471 0.454895
0.988251 0.980408 0.470581
1.000000 0.972565 0.525482
0.494110 1.000000 0.509796
0.509796 1.000000 0.509796
0.556854 1.000000 0.513733
0.627441 1.000000 0.513733
0.713745 1.000000 0.521576
0.807861 1.000000 0.525482
0.905884 1.000000 0.541168
1.000000 1.000000 0.564697
0.000000 0.000000 0.211761
0.211761 0.000000 0.211761
0.415680 0.000000 0.215668
0.607819 0.043121 0.227448
0.756866 0.129425 0.243134
0.866669 0.211761 0.278442
0.980408 0.286285 0.325500
1.000000 0.360779 0.392151
0.000000 0.211761 0.215668
0.215668 0.215668 0.215668
0.415680 0.219604 0.223511
0.607819 0.231354 0.235291
0.756866 0.254913 0.254913
0.862762 0.294128 0.290192
0.976471 0.345093 0.341187
1.000000 0.403931 0.403931
0.000000 0.423523 0.223511
0.223511 0.423523 0.227448
0.419586 0.419586 0.231354
0.611755 0.419586 0.250977
0.752960 0.419586 0.278442
0.858826 0.427460 0.321564
0.972565 0.454895 0.372559
1.000000 0.498016 0.435303
0.133331 0.588226 0.247040
0.254883 0.592133 0.250977
0.415680 0.588226 0.250977
0.584290 0.580383 0.266663
0.729431 0.564697 0.294128
0.850983 0.564697 0.352936
0.968628 0.580383 0.411774
1.000000 0.607819 0.470581
0.274506 0.701965 0.313721
0.329407 0.701965 0.321564
0.435303 0.701965 0.321564
0.564697 0.698059 0.321564
0.698059 0.690216 0.333344
0.827454 0.682373 0.360779
0.968628 0.701965 0.431366
1.000000 0.733337 0.505890
0.372559 0.815704 0.392151
0.403931 0.819611 0.396088
0.478424 0.815704 0.399994
0.584320 0.815704 0.399994
0.701965 0.815704 0.399994
0.835297 0.819611 0.411774
0.972565 0.831390 0.443146
1.000000 0.858826 0.517639
0.439209 0.980408 0.470581
0.466675 0.976471 0.470581
0.529419 0.972565 0.470581
0.619598 0.972565 0.474518
0.733337 0.976471 0.478424
0.858826 0.976471 0.482361
0.988251 0.980408 0.501953
1.000000 0.972565 0.549011
0.490204 1.000000 0.529419
0.505890 1.000000 0.525482
0.552948 1.000000 0.529419
0.623535 1.000000 0.533325
0.713745 1.000000 0.537262
0.807861 1.000000 0.545105
0.905884 1.000000 0.560791
1.000000 1.000000 0.588226
0.000000 0.000000 0.423523
0.211761 0.000000 0.423523
0.411743 0.000000 0.419586
0.615662 0.000000 0.423523
0.752960 0.133362 0.411743
0.850983 0.250977 0.427429
0.968628 0.313721 0.447052
1.000000 0.372559 0.486267
0.000000 0.211761 0.423523
0.207825 0.211761 0.423523
0.415680 0.215668 0.427429
0.607819 0.219604 0.423523
0.741180 0.270599 0.419617
0.843140 0.325500 0.435272
0.964722 0.372559 0.458832
1.000000 0.415680 0.494110
0.000000 0.419586 0.427429
0.215668 0.419586 0.431366
0.419586 0.419586 0.427429
0.592133 0.423523 0.431366
0.721588 0.431366 0.443115
0.835297 0.450958 0.458801
0.960785 0.474487 0.482330
1.000000 0.501953 0.513733
0.172516 0.584290 0.427429
0.282349 0.584290 0.435272
0.427429 0.580383 0.435272
0.580383 0.576447 0.439209
0.713745 0.572540 0.458832
0.831390 0.580383 0.490173
0.960785 0.592133 0.513702
1.000000 0.611755 0.541168
0.321564 0.694122 0.454895
0.368622 0.694122 0.462738
0.458832 0.694122 0.466644
0.572540 0.694122 0.466644
0.694122 0.686279 0.470581
0.819611 0.686279 0.486267
0.964722 0.709808 0.529419
1.000000 0.733337 0.572540
0.388245 0.815704 0.490204
0.419617 0.819611 0.494110
0.490204 0.815704 0.498016
0.588226 0.815704 0.498047
0.705902 0.815704 0.501953
0.831390 0.819611 0.509796
0.968628 0.831390 0.529419
1.000000 0.858826 0.588226
0.427460 0.980408 0.533325
0.450989 0.976471 0.529419
0.517639 0.976471 0.533325
0.615692 0.976471 0.537262
0.729431 0.976471 0.541168
0.854919 0.976471 0.549011
0.984314 0.980408 0.564697
1.000000 0.968628 0.607849
0.482361 1.000000 0.576477
0.498047 1.000000 0.572540
0.549011 1.000000 0.576477
0.619598 1.000000 0.580383
0.709808 1.000000 0.584320
0.807861 1.000000 0.592163
0.905884 1.000000 0.607849
1.000000 1.000000 0.639221
0.000000 0.000000 0.607819
0.199982 0.000000 0.607819
0.399994 0.007843 0.611755
0.592133 0.019592 0.607819
0.749023 0.101959 0.588226
0.854919 0.235321 0.564697
0.960785 0.341187 0.580383
1.000000 0.392151 0.607819
0.000000 0.211761 0.603912
0.207825 0.215668 0.607819
0.399994 0.219604 0.607819
0.588226 0.223511 0.603912
0.741180 0.250977 0.584290
0.843140 0.325500 0.572540
0.956879 0.392151 0.588226
1.000000 0.423523 0.607819
0.094086 0.407837 0.599976
0.243134 0.411743 0.599976
0.415680 0.415680 0.599976
0.580383 0.415680 0.596069
0.717651 0.431366 0.584290
0.819611 0.462738 0.588226
0.952942 0.482361 0.596069
1.000000 0.490204 0.611755
0.188202 0.576447 0.596069
0.290192 0.580383 0.596069
0.435272 0.576447 0.596069
0.572540 0.572540 0.592133
0.690216 0.576447 0.596069
0.811768 0.580383 0.603912
0.952942 0.588226 0.611755
1.000000 0.599976 0.627441
0.349030 0.690216 0.588226
0.392151 0.694122 0.592163
0.474518 0.690216 0.596069
0.576477 0.686279 0.596069
0.690216 0.682373 0.599976
0.819611 0.694122 0.615662
0.968628 0.713745 0.635284
1.000000 0.729431 0.658813
0.388245 0.819611 0.603912
0.415680 0.819611 0.603912
0.486267 0.819611 0.603912
0.584290 0.815704 0.603912
0.701965 0.819611 0.607849
0.827454 0.819611 0.615692
0.972565 0.835297 0.635284
1.000000 0.858826 0.682343
0.388245 0.984314 0.623535
0.415680 0.976471 0.619598
0.490204 0.980408 0.623535
0.596069 0.980408 0.627441
0.717651 0.980408 0.631378
0.847076 0.980408 0.635284
0.984314 0.984314 0.654907
1.000000 0.964722 0.690186
0.482361 1.000000 0.658813
0.494110 1.000000 0.654907
0.545105 1.000000 0.658813
0.619598 1.000000 0.658813
0.705902 1.000000 0.662750
0.803925 1.000000 0.666656
0.905884 1.000000 0.686279
1.000000 1.000000 0.717651
0.023529 0.074524 0.741180
0.199982 0.086273 0.741180
0.372528 0.105896 0.741180
0.541168 0.129425 0.741180
0.705902 0.152954 0.737274
0.847076 0.215698 0.721588
0.964722 0.317657 0.717651
1.000000 0.388245 0.737274
0.101959 0.227448 0.737274
0.227448 0.235291 0.737274
0.384308 0.247070 0.737274
0.545074 0.258820 0.737274
0.701965 0.270599 0.733337
0.839233 0.309814 0.721588
0.956879 0.376465 0.717651
1.000000 0.419617 0.737274
0.200012 0.407837 0.729431
0.286285 0.411743 0.729431
0.415680 0.423523 0.729431
0.556854 0.431366 0.725494
0.694122 0.431366 0.725494
0.823547 0.450958 0.717651
0.952942 0.470581 0.725494
1.000000 0.490173 0.741180
0.294128 0.560760 0.725494
0.352936 0.564697 0.725494
0.450958 0.568604 0.721588
0.564697 0.572540 0.721588
0.686279 0.572540 0.721588
0.811768 0.572540 0.721588
0.960785 0.576447 0.729431
1.000000 0.584290 0.741180
0.349030 0.686279 0.721588
0.388245 0.686279 0.725494
0.470581 0.686279 0.721588
0.572540 0.686279 0.721588
0.686279 0.686279 0.721588
0.815704 0.686279 0.725494
0.972565 0.698059 0.741180
1.000000 0.713745 0.760803
0.384308 0.819611 0.737274
0.407837 0.815704 0.733337
0.470581 0.819611 0.729431
0.564697 0.823547 0.729431
0.690216 0.823547 0.729431
0.827454 0.823547 0.733337
0.984314 0.843140 0.760803
1.000000 0.858826 0.796082
0.356873 0.984314 0.752960
0.380402 0.980408 0.745117
0.454895 0.984314 0.745117
0.564697 0.984314 0.745117
0.698059 0.980408 0.745117
0.839233 0.980408 0.749023
0.980408 0.984314 0.772552
1.000000 0.960785 0.800018
0.545105 1.000000 0.788239
0.549042 1.000000 0.780396
0.588226 1.000000 0.780396
0.643127 1.000000 0.776489
0.717651 1.000000 0.772552
0.811768 1.000000 0.776489
0.909821 1.000000 0.796082
1.000000 1.000000 0.819611
0.109802 0.149017 0.870605
0.219604 0.160797 0.870605
0.372528 0.184326 0.870605
0.525482 0.211761 0.866669
0.674530 0.239227 0.866669
0.823547 0.254913 0.866669
0.968628 0.290192 0.866669
1.000000 0.364716 0.874512
0.164703 0.258820 0.870605
0.250977 0.266663 0.870605
0.388214 0.282349 0.866669
0.533325 0.301971 0.866669
0.678436 0.321564 0.862762
0.819611 0.329407 0.862762
0.964722 0.356873 0.870605
1.000000 0.403931 0.878448
0.239227 0.415680 0.866669
0.305878 0.419617 0.866669
0.419617 0.431366 0.866669
0.552917 0.443146 0.862762
0.682373 0.454895 0.858826
0.815704 0.454895 0.862762
0.960785 0.466644 0.870605
1.000000 0.478424 0.882355
0.317627 0.564697 0.862762
0.356873 0.564697 0.866669
0.443146 0.564697 0.862762
0.560760 0.568604 0.862762
0.682373 0.572540 0.862762
0.815704 0.568604 0.862762
0.968628 0.572540 0.878448
1.000000 0.572540 0.882355
0.356873 0.694122 0.866669
0.384308 0.690216 0.862762
0.454895 0.690216 0.862762
0.552917 0.686279 0.866669
0.678436 0.682373 0.866669
0.819611 0.682373 0.870605
0.984314 0.690216 0.882355
1.000000 0.705902 0.886292
0.360779 0.831390 0.878448
0.384308 0.823547 0.870605
0.454895 0.823547 0.874512
0.552917 0.823547 0.874512
0.678436 0.823547 0.874512
0.827454 0.827454 0.878448
0.984314 0.843140 0.894135
1.000000 0.862762 0.905884
0.345093 0.988251 0.890198
0.368622 0.984314 0.886292
0.447052 0.984314 0.882355
0.556854 0.984314 0.882355
0.690216 0.980408 0.882355
0.839233 0.984314 0.886292
0.980408 0.988251 0.898041
1.000000 0.960785 0.917664
0.549011 1.000000 0.874512
0.556854 1.000000 0.874512
0.611755 1.000000 0.878448
0.694122 1.000000 0.886292
0.796082 1.000000 0.905884
0.858826 1.000000 0.901978
0.933350 1.000000 0.913727
0.996063 1.000000 0.929413
0.227448 0.227448 1.000000
0.294128 0.239227 1.000000
0.411774 0.262756 1.000000
0.552917 0.294128 0.996094
0.690216 0.321564 0.996063
0.835297 0.333344 0.996094
0.984314 0.337250 1.000000
1.000000 0.345093 1.000000
0.254913 0.305878 1.000000
0.313721 0.313721 1.000000
0.427460 0.333344 1.000000
0.560760 0.356873 0.996094
0.694122 0.376465 0.992157
0.835297 0.388245 0.996094
0.984314 0.388245 1.000000
1.000000 0.388245 1.000000
0.294128 0.431366 1.000000
0.345093 0.439209 1.000000
0.447052 0.450958 1.000000
0.568604 0.462738 0.996094
0.698059 0.470581 0.996094
0.839233 0.478424 0.996094
0.984314 0.474518 1.000000
1.000000 0.470581 1.000000
0.317627 0.560760 1.000000
0.356873 0.564697 1.000000
0.447052 0.564697 1.000000
0.564697 0.568604 0.996094
0.694122 0.572540 0.996094
0.839233 0.576447 1.000000
0.984314 0.576447 1.000000
1.000000 0.568604 1.000000
0.352936 0.698059 1.000000
0.376465 0.694122 0.996094
0.443146 0.690216 0.996094
0.549011 0.682373 1.000000
0.686279 0.686279 1.000000
0.835297 0.690216 1.000000
0.988251 0.694122 1.000000
1.000000 0.694122 1.000000
0.360779 0.835297 1.000000
0.380402 0.831390 0.996094
0.450989 0.827454 0.996094
0.560760 0.827454 0.996094
0.694122 0.827454 1.000000
0.843140 0.835297 1.000000
0.988251 0.843140 1.000000
1.000000 0.854919 0.988220
0.364716 0.984314 0.996094
0.380402 0.980408 0.992157
0.458832 0.980408 0.992157
0.572540 0.980408 0.992157
0.713745 0.980408 0.992157
0.862762 0.984314 0.992157
0.988251 0.988251 0.992157
1.000000 0.988251 0.996094
0.588226 1.000000 0.956879
0.592163 1.000000 0.956879
0.643127 1.000000 0.956879
0.729401 1.000000 0.960785
0.835297 1.000000 0.968628
0.949036 1.000000 0.984314
0.996094 1.000000 1.000000
1.000000 1.000000 1.000000
0.333344 0.290192 1.000000
0.372559 0.298035 1.000000
0.458832 0.321564 1.000000
0.572540 0.349030 1.000000
0.690216 0.380402 1.000000
0.807861 0.399994 1.000000
0.925507 0.411774 1.000000
1.000000 0.415680 1.000000
0.349030 0.345093 1.000000
0.388245 0.352936 1.000000
0.470581 0.368622 1.000000
0.576447 0.392151 1.000000
0.694122 0.415680 1.000000
0.807861 0.431366 1.000000
0.925507 0.443146 1.000000
1.000000 0.447052 1.000000
0.380402 0.450989 1.000000
0.411774 0.454895 1.000000
0.486267 0.462738 1.000000
0.584290 0.478424 1.000000
0.694122 0.486267 1.000000
0.807861 0.498047 1.000000
0.925507 0.505890 1.000000
1.000000 0.509796 1.000000
0.415680 0.568604 1.000000
0.439209 0.568604 1.000000
0.498016 0.572540 1.000000
0.584290 0.572540 1.000000
0.690216 0.576447 1.000000
0.803925 0.580383 1.000000
0.921570 0.588226 1.000000
1.000000 0.599976 1.000000
0.447052 0.682373 1.000000
0.466675 0.682373 1.000000
0.533325 0.690216 1.000000
0.611755 0.690216 1.000000
0.698059 0.686279 1.000000
0.807861 0.690216 1.000000
0.921570 0.701965 1.000000
1.000000 0.721588 1.000000
0.474518 0.792175 1.000000
0.494110 0.792175 1.000000
0.552948 0.796082 1.000000
0.643127 0.807861 1.000000
0.764709 0.831390 1.000000
0.847076 0.835297 1.000000
0.937256 0.847076 1.000000
1.000000 0.874512 1.000000
0.556854 0.905884 1.000000
0.576477 0.909821 1.000000
0.627441 0.909821 1.000000
0.705872 0.917664 1.000000
0.803925 0.929413 1.000000
0.917664 0.956879 1.000000
0.992157 0.988251 1.000000
1.000000 1.000000 1.000000
0.705872 1.000000 1.000000
0.725494 1.000000 1.000000
0.764709 1.000000 1.000000
0.831360 1.000000 1.000000
0.913727 1.000000 1.000000
0.992157 1.000000 1.000000
1.000000 1.000000 1.000000
1.000000 1.000000 1.000000
