ios/Runner/Resources/mood.cube
#Created by: Adobe Photoshop Export Color Lookup Plugin
TITLE "mood.png"

#LUT size
LUT_3D_SIZE 8

#data domain
DOMAIN_MIN 0.0 0.0 0.0
DOMAIN_MAX 1.0 1.0 1.0

#LUT data points
0.000000 0.000000 0.000000
0.301941 0.000000 0.000000
0.549011 0.000000 0.000000
0.705872 0.000000 0.000000
0.854919 0.000000 0.000000
1.000000 0.000000 0.007843
1.000000 0.000000 0.039215
1.000000 0.000000 0.058838
0.000000 0.290192 0.000000
0.278412 0.282349 0.000000
0.517639 0.266663 0.007843
0.682343 0.250977 0.074493
0.839233 0.231354 0.086273
1.000000 0.203918 0.094116
1.000000 0.176453 0.101959
1.000000 0.160767 0.113708
0.000000 0.498016 0.000000
0.219604 0.498016 0.000000
0.474487 0.474487 0.000000
0.647034 0.435272 0.003937
0.803955 0.431366 0.196075
0.972565 0.423523 0.211761
1.000000 0.396057 0.211761
1.000000 0.368622 0.203918
0.000000 0.615662 0.000000
0.141174 0.619598 0.000000
0.392151 0.607819 0.000000
0.588226 0.588226 0.000000
0.768646 0.568604 0.000000
0.933350 0.576447 0.223541
1.000000 0.568604 0.290192
1.000000 0.537231 0.290192
0.000000 0.749023 0.000000
0.000000 0.749023 0.000000
0.321533 0.741180 0.000000
0.533295 0.729431 0.000000
0.721588 0.721588 0.000000
0.894135 0.705902 0.000000
1.000000 0.690216 0.148987
1.000000 0.662750 0.294098
0.000000 0.870605 0.000000
0.000000 0.874512 0.000000
0.223511 0.870605 0.000000
0.466644 0.862762 0.000000
0.658844 0.854919 0.000000
0.839233 0.843140 0.000000
0.996063 0.815704 0.000000
1.000000 0.772552 0.000000
0.000000 0.964722 0.000000
0.000000 0.964722 0.000000
0.000000 0.964722 0.000000
0.368591 0.960785 0.000000
0.580414 0.956848 0.000000
0.764709 0.949005 0.000000
0.929413 0.929413 0.000000
1.000000 0.898041 0.000000
0.000000 1.000000 0.000000
0.000000 1.000000 0.000000
0.000000 1.000000 0.000000
0.199951 1.000000 0.000000
0.478455 1.000000 0.000000
0.678436 1.000000 0.000000
0.850983 1.000000 0.000000
1.000000 1.000000 0.000000
0.000000 0.000000 0.333313
0.309784 0.000000 0.329407
0.541168 0.000000 0.298035
0.686249 0.000000 0.266663
0.847076 0.000000 0.243134
1.000000 0.000000 0.223511
1.000000 0.000000 0.211761
1.000000 0.000000 0.203918
0.000000 0.290192 0.313721
0.262726 0.266663 0.305878
0.513702 0.254883 0.286255
0.666656 0.247040 0.274506
0.831390 0.223511 0.258820
0.996094 0.192139 0.243134
1.000000 0.172546 0.235291
1.000000 0.164703 0.227448
0.000000 0.486267 0.254883
0.203918 0.486267 0.250977
0.466675 0.470581 0.231354
0.623535 0.443115 0.309784
0.788269 0.443115 0.325470
0.964722 0.423523 0.309784
1.000000 0.396057 0.294098
1.000000 0.368622 0.282349
0.000000 0.611755 0.199982
0.152954 0.615662 0.196075
0.392151 0.603912 0.176453
0.588226 0.584290 0.156860
0.764709 0.568634 0.203949
0.925507 0.584290 0.337250
1.000000 0.564697 0.349030
1.000000 0.533325 0.337250
0.000000 0.752960 0.109772
0.000000 0.756866 0.109772
0.325470 0.745117 0.094086
0.533295 0.733337 0.039185
0.717651 0.717651 0.000000
0.894135 0.701965 0.000000
1.000000 0.690216 0.282318
1.000000 0.662750 0.348999
0.000000 0.878448 0.000000
0.000000 0.878448 0.000000
0.231354 0.874512 0.000000
0.466644 0.862762 0.000000
0.658844 0.854919 0.000000
0.839233 0.839233 0.000000
0.996063 0.815704 0.000000
1.000000 0.776489 0.109741
0.000000 0.968628 0.000000
0.000000 0.968628 0.000000
0.000000 0.968628 0.000000
0.372528 0.964722 0.000000
0.580414 0.956879 0.000000
0.764709 0.949036 0.000000
0.929413 0.929413 0.000000
1.000000 0.898041 0.000000
0.000000 1.000000 0.000000
0.000000 1.000000 0.000000
0.000000 1.000000 0.000000
0.184265 1.000000 0.000000
0.474518 1.000000 0.000000
0.674530 1.000000 0.000000
0.850983 1.000000 0.000000
1.000000 1.000000 0.000000
0.000000 0.000000 0.541168
0.231384 0.000000 0.541168
0.498016 0.000000 0.529388
0.674500 0.000000 0.490173
0.819641 0.000000 0.454895
0.992157 0.000000 0.439209
1.000000 0.000000 0.407837
1.000000 0.000000 0.380371
0.000000 0.247040 0.521576
0.211761 0.235291 0.521545
0.482330 0.219604 0.517639
0.654877 0.231354 0.482330
0.807861 0.235291 0.458801
0.984314 0.192139 0.439209
1.000000 0.152924 0.407837
1.000000 0.156860 0.380371
0.000000 0.466675 0.498047
0.199982 0.466644 0.498047
0.443146 0.447052 0.482361
0.603912 0.435303 0.466644
0.784332 0.407837 0.447052
0.960785 0.380371 0.427429
1.000000 0.356842 0.407837
1.000000 0.341156 0.388214
0.000000 0.599976 0.443115
0.192169 0.603912 0.447052
0.388245 0.592133 0.431366
0.576447 0.576447 0.419617
0.749054 0.576447 0.450989
0.929413 0.572540 0.458801
1.000000 0.545074 0.443115
1.000000 0.513702 0.419586
0.000000 0.749023 0.380371
0.000000 0.756866 0.376465
0.305847 0.745117 0.368622
0.525482 0.729431 0.360779
0.713745 0.713745 0.348999
0.890198 0.701965 0.352905
1.000000 0.690216 0.431366
1.000000 0.654907 0.439209
0.000000 0.878448 0.294098
0.000000 0.878448 0.294098
0.180359 0.874512 0.290192
0.454895 0.866669 0.282349
0.654907 0.850983 0.270569
0.839233 0.839233 0.250946
0.992157 0.811768 0.227417
1.000000 0.772552 0.337219
0.000000 0.964722 0.152893
0.000000 0.968628 0.160736
0.000000 0.964722 0.148987
0.364685 0.960785 0.133301
0.576477 0.952942 0.105804
0.764709 0.945099 0.082275
0.929413 0.929413 0.000000
1.000000 0.898041 0.000000
0.000000 1.000000 0.000000
0.000000 1.000000 0.000000
0.000000 1.000000 0.000000
0.172485 1.000000 0.000000
0.466675 1.000000 0.000000
0.670593 1.000000 0.000000
0.847076 1.000000 0.000000
1.000000 1.000000 0.000000
0.000000 0.000000 0.709778
0.180389 0.000000 0.705872
0.435272 0.000000 0.694092
0.643127 0.000000 0.678406
0.811768 0.000000 0.650970
0.968628 0.000000 0.627441
1.000000 0.000000 0.596069
1.000000 0.000000 0.545074
0.000000 0.227448 0.709778
0.152954 0.219604 0.709778
0.427429 0.196075 0.690186
0.631348 0.180389 0.670563
0.800018 0.184326 0.643127
0.960785 0.188232 0.623505
1.000000 0.137238 0.584290
1.000000 0.121582 0.537231
0.000000 0.439209 0.678406
0.109802 0.435272 0.682343
0.396088 0.415680 0.666656
0.603912 0.399994 0.643127
0.772552 0.384308 0.623505
0.949036 0.348999 0.599976
1.000000 0.309784 0.560760
1.000000 0.298035 0.521545
0.000000 0.596069 0.627441
0.098053 0.596069 0.635284
0.341187 0.580383 0.623505
0.545074 0.552917 0.607819
0.741211 0.533325 0.584290
0.921600 0.505859 0.564697
1.000000 0.486267 0.537231
1.000000 0.466644 0.513702
0.000000 0.733337 0.580383
0.000000 0.741180 0.580383
0.215637 0.733337 0.568604
0.466644 0.721588 0.541168
0.701965 0.705902 0.525482
0.890198 0.698059 0.568604
1.000000 0.690216 0.584290
1.000000 0.651001 0.552948
0.000000 0.874512 0.490173
0.000000 0.878448 0.490173
0.000000 0.870605 0.478394
0.368591 0.862762 0.462708
0.619629 0.850983 0.450958
0.831390 0.835297 0.443115
0.996063 0.800018 0.439178
1.000000 0.768646 0.513702
0.000000 0.964722 0.388214
0.000000 0.964722 0.388214
0.000000 0.964722 0.376465
0.254883 0.960785 0.364685
0.533356 0.956879 0.356842
0.745117 0.949036 0.356842
0.925507 0.929413 0.345093
1.000000 0.890198 0.329376
0.000000 1.000000 0.250946
0.000000 1.000000 0.250946
0.000000 1.000000 0.235260
0.062683 1.000000 0.211731
0.443176 1.000000 0.203888
0.658844 1.000000 0.215637
0.839233 1.000000 0.231354
1.000000 1.000000 0.247040
0.000000 0.015686 0.886292
0.043091 0.000000 0.878448
0.376434 0.000000 0.866669
0.592133 0.000000 0.850983
0.788239 0.000000 0.835297
0.960785 0.000000 0.815704
1.000000 0.000000 0.772552
1.000000 0.000000 0.713745
0.000000 0.219604 0.874512
0.000000 0.215668 0.874512
0.368591 0.196075 0.862762
0.588196 0.168640 0.843140
0.780396 0.133331 0.827454
0.952942 0.094086 0.807861
1.000000 0.098022 0.764709
1.000000 0.054871 0.705902
0.000000 0.411743 0.854919
0.000000 0.407837 0.854919
0.337250 0.388214 0.847076
0.564697 0.368622 0.827484
0.760803 0.348999 0.811768
0.937256 0.321564 0.792175
1.000000 0.286255 0.745117
1.000000 0.258820 0.686279
0.000000 0.576447 0.819611
0.000000 0.572540 0.823547
0.227448 0.549011 0.815704
0.486267 0.517639 0.803925
0.721588 0.498016 0.788269
0.917664 0.474487 0.764709
1.000000 0.447021 0.709839
1.000000 0.435272 0.658844
0.000000 0.725494 0.772552
0.000000 0.725494 0.776489
0.070496 0.713745 0.772552
0.415649 0.698059 0.760803
0.666687 0.674530 0.741180
0.870605 0.662750 0.717651
1.000000 0.639221 0.682373
1.000000 0.623535 0.654907
0.000000 0.862762 0.705902
0.000000 0.870605 0.705902
0.000000 0.866669 0.694122
0.305817 0.854919 0.678436
0.603943 0.839233 0.666687
0.823547 0.827454 0.651001
0.968628 0.807861 0.694122
1.000000 0.803925 0.717651
0.000000 0.964722 0.588257
0.000000 0.964722 0.588257
0.000000 0.960785 0.584320
0.254852 0.949036 0.588257
0.529449 0.945099 0.584320
0.733337 0.941193 0.572571
0.921570 0.925507 0.549042
1.000000 0.886292 0.552948
0.000000 1.000000 0.513733
0.000000 1.000000 0.525513
0.000000 1.000000 0.517670
0.184326 1.000000 0.505920
0.447083 1.000000 0.494141
0.651001 1.000000 0.490234
0.835297 1.000000 0.490234
0.996063 1.000000 0.505920
0.000000 0.094116 0.976471
0.000000 0.082367 0.972565
0.305878 0.054901 0.968628
0.521545 0.000000 0.964722
0.717651 0.000000 0.956879
0.894135 0.000000 0.949036
1.000000 0.000000 0.929413
1.000000 0.000000 0.878448
0.000000 0.223541 0.968628
0.000000 0.223511 0.968628
0.309784 0.215668 0.964722
0.521545 0.199982 0.960785
0.713745 0.176453 0.952942
0.890198 0.121552 0.945099
1.000000 0.000000 0.921570
1.000000 0.000000 0.874512
0.000000 0.388214 0.952942
0.000000 0.384308 0.952942
0.290192 0.372528 0.952942
0.498016 0.360779 0.949036
0.694122 0.341156 0.945099
0.874512 0.309784 0.933350
1.000000 0.254883 0.913727
1.000000 0.215668 0.858826
0.000000 0.529388 0.937256
0.000000 0.525482 0.937256
0.196075 0.509796 0.933350
0.435272 0.490173 0.929413
0.651001 0.474487 0.925507
0.850983 0.450958 0.921570
1.000000 0.403900 0.894135
1.000000 0.380371 0.831390
0.000000 0.674530 0.913727
0.000000 0.674530 0.917664
0.000000 0.662750 0.913727
0.368591 0.651001 0.905884
0.615692 0.639221 0.898041
0.827454 0.623535 0.890198
1.000000 0.592163 0.858826
1.000000 0.588257 0.800018
0.000000 0.827454 0.878448
0.000000 0.827454 0.882355
0.000000 0.823547 0.882355
0.290161 0.819611 0.874512
0.584320 0.815704 0.866669
0.796082 0.800018 0.847076
0.941162 0.788239 0.823547
1.000000 0.784332 0.803925
0.000000 0.960785 0.807861
0.000000 0.964722 0.807861
0.000000 0.960785 0.803925
0.203857 0.952942 0.800018
0.564728 0.941162 0.796082
0.768646 0.925476 0.800018
0.913727 0.913727 0.788239
1.000000 0.909821 0.839233
0.000000 1.000000 0.701965
0.000000 1.000000 0.705902
0.000000 1.000000 0.717651
0.419586 1.000000 0.741180
0.662750 1.000000 0.780396
0.764709 1.000000 0.776489
0.878448 1.000000 0.776489
0.992157 0.992157 0.792175
0.000000 0.137268 1.000000
0.000000 0.133331 1.000000
0.250977 0.129425 1.000000
0.454895 0.113739 1.000000
0.635315 0.090179 1.000000
0.803925 0.015686 1.000000
0.956879 0.000000 1.000000
1.000000 0.000000 0.996094
0.000000 0.235291 1.000000
0.000000 0.235291 1.000000
0.266663 0.231384 1.000000
0.458801 0.223511 1.000000
0.635315 0.207825 1.000000
0.800018 0.176453 1.000000
0.956879 0.109802 1.000000
1.000000 0.000000 0.996094
0.000000 0.372528 1.000000
0.000000 0.372528 1.000000
0.262726 0.364685 1.000000
0.443115 0.352936 1.000000
0.615692 0.337250 1.000000
0.784332 0.313721 1.000000
0.945099 0.274506 1.000000
1.000000 0.223511 0.988251
0.000000 0.498016 1.000000
0.000000 0.494110 1.000000
0.211761 0.486267 1.000000
0.399994 0.470581 1.000000
0.580414 0.454895 1.000000
0.756866 0.431366 1.000000
0.933350 0.407837 0.996094
1.000000 0.368622 0.980408
0.000000 0.619629 0.992157
0.000000 0.619629 0.992157
0.086212 0.615692 0.988251
0.384277 0.611786 0.980408
0.564728 0.603943 0.980377
0.745117 0.588257 0.980377
0.921570 0.572571 0.976471
1.000000 0.549042 0.960785
0.000000 0.760803 0.980377
0.000000 0.764709 0.980377
0.000000 0.760803 0.976471
0.348999 0.760803 0.968628
0.576477 0.768646 0.960785
0.756866 0.768646 0.952942
0.909821 0.764709 0.949005
1.000000 0.760803 0.933350
0.000000 0.909821 0.956879
0.000000 0.909821 0.956879
0.000000 0.909821 0.956879
0.352905 0.909821 0.952942
0.592163 0.909821 0.945099
0.776489 0.909821 0.937256
0.909821 0.909821 0.929413
0.988220 0.921570 0.929413
0.000000 1.000000 0.905884
0.000000 1.000000 0.905884
0.215668 1.000000 0.905884
0.486267 1.000000 0.905884
0.682373 1.000000 0.909821
0.831390 0.996063 0.921570
0.929413 0.992157 0.933350
0.992157 0.992157 0.949036
0.000000 0.105896 1.000000
0.000000 0.098053 1.000000
0.145081 0.074524 1.000000
0.368622 0.019623 1.000000
0.545105 0.000000 1.000000
0.705902 0.000000 1.000000
0.866669 0.000000 1.000000
1.000000 0.000000 1.000000
0.000000 0.203918 1.000000
0.000000 0.203918 1.000000
0.172546 0.188232 1.000000
0.372528 0.168640 1.000000
0.545105 0.145081 1.000000
0.705902 0.129395 1.000000
0.866669 0.105865 1.000000
1.000000 0.058807 1.000000
0.000000 0.341156 1.000000
0.000000 0.341156 1.000000
0.203918 0.329407 1.000000
0.376465 0.313721 1.000000
0.537262 0.298035 1.000000
0.698059 0.278412 1.000000
0.858826 0.258820 1.000000
1.000000 0.235291 1.000000
0.000000 0.462738 1.000000
0.000000 0.458801 1.000000
0.172546 0.450958 1.000000
0.345093 0.431366 1.000000
0.505890 0.415680 1.000000
0.670593 0.396057 1.000000
0.843140 0.380371 1.000000
1.000000 0.368622 1.000000
0.000000 0.576477 1.000000
0.000000 0.576477 1.000000
0.199951 0.580383 1.000000
0.348999 0.568634 1.000000
0.498047 0.552948 1.000000
0.658844 0.541199 1.000000
0.839233 0.537262 1.000000
1.000000 0.541199 1.000000
0.000000 0.690216 1.000000
0.000000 0.694122 1.000000
0.000000 0.694122 1.000000
0.356842 0.705902 1.000000
0.584320 0.733337 1.000000
0.717651 0.737274 1.000000
0.866669 0.741180 1.000000
1.000000 0.760803 1.000000
0.000000 0.839233 1.000000
0.000000 0.839233 1.000000
0.097992 0.843140 1.000000
0.419586 0.854919 1.000000
0.631378 0.870605 1.000000
0.800018 0.898041 0.996063
0.917664 0.913727 0.992157
0.996063 0.925507 0.996063
0.356873 0.976471 1.000000
0.407837 0.980377 1.000000
0.509796 0.980377 1.000000
0.643127 0.980377 1.000000
0.776489 0.984314 0.996063
0.890198 0.984314 0.996063
0.968628 0.992157 0.996063
1.000000 1.000000 1.000000
